svg/fluentui-system-icons/ic_fluent_arrow_hook_up_left_28_filled.svg

<svg width="28" height="28" viewBox="0 0 28 28" fill="none" xmlns="http://www.w3.org/2000/svg">
<path d="M21.2179 19.9774C20.0109 21.2222 18.2425 22 16 22H9.00002C8.44773 22 8.00002 21.5523 8.00002 21C8.00002 20.4477 8.44773 20 9.00002 20H16C17.7576 20 18.9892 19.4028 19.7821 18.5851C20.5864 17.7556 21 16.6371 21 15.5C21 14.3629 20.5864 13.2444 19.7821 12.4149C18.9892 11.5972 17.7576 11 16 11H8.41422L11.7071 14.2929C12.0977 14.6834 12.0977 15.3166 11.7071 15.7071C11.3166 16.0976 10.6834 16.0976 10.2929 15.7071L5.29289 10.7071C5.10536 10.5196 5 10.2652 5 10C5 9.73478 5.10536 9.48043 5.29289 9.29289L10.2929 4.29289C10.6834 3.90237 11.3166 3.90237 11.7071 4.29289C12.0977 4.68342 12.0977 5.31658 11.7071 5.70711L8.41422 9H16C18.2425 9 20.0109 9.77783 21.2179 11.0226C22.4136 12.2556 23 13.8871 23 15.5C23 17.1129 22.4136 18.7444 21.2179 19.9774Z" fill="#212121"/>
</svg>

<svg xmlns="http://www.w3.org/2000/svg" width="28" height="28"><path d="M21.218 19.977C20.01 21.222 18.242 22 16 22H9a1 1 0 1 1 0-2h7c1.758 0 2.99-.597 3.782-1.415.804-.83 1.218-1.948 1.218-3.085s-.414-2.256-1.218-3.085C18.99 11.597 17.758 11 16 11H8.414l3.293 3.293a1 1 0 1 1-1.414 1.414l-5-5a1 1 0 0 1 0-1.414l5-5a1 1 0 1 1 1.414 1.414L8.414 9H16c2.242 0 4.01.778 5.218 2.023C22.414 12.256 23 13.887 23 15.5c0 1.613-.586 3.244-1.782 4.477Z"/></svg>
